public/images/flags/HU.svg

<svg width="21" height="15" viewBox="0 0 21 15" fill="none" xmlns="http://www.w3.org/2000/svg">
<path d="M1.99498 0C1.73222 0.000261042 1.47212 0.0523746 1.22954 0.153351C0.98696 0.254327 0.766677 0.402179 0.581345 0.58844C0.396014 0.7747 0.249253 0.995704 0.149491 1.23878C0.049729 1.48187 -0.00106722 1.74225 -1.44837e-05 2.005V5H21V2.005C20.9997 1.47505 20.7898 0.966732 20.416 0.591064C20.0422 0.215397 19.5349 0.00290595 19.005 0H1.99498Z" fill="#E25950"/>
<path d="M0 5H21V10H0V5Z" fill="#F6F9FC"/>
<path d="M0 10V12.995C0.000256215 13.525 0.210221 14.0333 0.584015 14.4089C0.957809 14.7846 1.46505 14.9971 1.995 15H19.005C19.2678 14.9997 19.5279 14.9476 19.7704 14.8466C20.013 14.7457 20.2333 14.5978 20.4186 14.4116C20.604 14.2253 20.7507 14.0043 20.8505 13.7612C20.9503 13.5181 21.0011 13.2578 21 12.995V10H0Z" fill="#24B47E"/>
<path d="M0 5H1.00101V10H0V5ZM19.999 5H21V10H19.999V5Z" fill="#EAEEF3"/>
</svg>

<svg width="21" height="15" fill="none" xmlns="http://www.w3.org/2000/svg"><path d="M1.995 0A1.997 1.997 0 0 0 0 2.005V5h21V2.005A2.006 2.006 0 0 0 19.005 0H1.995z" fill="#E25950"/><path d="M0 5h21v5H0V5z" fill="#F6F9FC"/><path d="M0 10v2.995A2.006 2.006 0 0 0 1.995 15h17.01A1.997 1.997 0 0 0 21 12.995V10H0z" fill="#24B47E"/><path d="M0 5h1.001v5H0V5zm19.999 0H21v5h-1.001V5z" fill="#EAEEF3"/></svg>
